<?xml version="1.0" encoding="UTF-8"?>
<map version="1.10" tiledversion="1.11.2" orientation="orthogonal" renderorder="right-down" width="70" height="66" tilewidth="32" tileheight="32" infinite="0" nextlayerid="2" nextobjectid="1">
 <tileset firstgid="1" source="../Tilesets/TSXs/Overworld 3.tsx"/>
 <layer id="1" name="Tile Layer 1" width="70" height="66">
  <data encoding="csv">
101,102,102,102,102,102,102,102,102,102,102,102,102,102,102,102,102,102,102,102,102,102,102,102,102,102,102,102,102,102,102,102,102,102,102,102,102,102,102,102,102,102,102,102,102,102,102,102,102,102,102,102,102,102,102,102,102,102,102,102,102,102,102,102,102,102,102,102,102,100,
76,86,62,62,62,62,62,62,62,62,62,62,62,62,62,62,62,62,62,62,62,62,62,62,62,62,62,62,62,62,62,62,62,62,62,62,62,62,62,62,62,62,62,62,62,62,62,62,62,62,62,62,62,62,62,62,62,62,62,62,62,62,62,62,62,62,62,62,86,63,
76,62,62,62,62,62,62,62,62,62,62,62,62,62,62,62,62,62,62,62,62,62,62,62,62,62,62,62,62,62,62,62,62,62,62,62,62,62,62,62,62,62,62,62,62,62,62,62,62,62,62,62,62,62,62,62,62,62,62,62,62,62,62,62,62,62,62,62,62,63,
76,62,62,62,62,62,62,62,62,62,62,62,62,62,62,62,62,62,62,62,62,62,62,62,62,62,62,62,62,62,62,62,62,62,62,62,62,62,62,62,62,62,62,62,62,62,62,62,62,62,62,62,62,62,62,62,62,62,62,62,62,62,62,62,62,62,62,62,62,63,
76,62,62,62,62,62,62,62,62,62,62,62,62,62,62,62,62,62,62,62,62,62,62,62,62,62,62,62,62,62,62,62,62,62,62,62,62,62,62,62,62,62,62,62,62,62,62,62,62,62,62,62,62,62,62,62,62,62,62,62,62,62,62,62,62,62,62,62,62,63,
76,62,62,62,62,62,62,62,62,62,62,62,62,62,62,62,62,62,62,62,62,62,62,62,62,62,62,62,62,62,62,62,62,62,62,62,62,62,62,62,62,62,62,62,62,62,62,62,62,62,62,62,62,62,62,62,62,62,62,62,62,62,62,62,62,62,62,62,62,63,
76,62,62,62,62,62,62,62,62,62,62,62,62,62,62,62,62,62,62,62,62,62,62,62,62,62,62,62,62,62,62,62,62,62,62,62,62,62,62,62,62,62,62,62,62,62,62,62,62,62,62,62,62,62,62,62,62,62,62,86,62,62,62,62,62,62,62,62,62,63,
76,62,62,62,62,62,62,62,62,69,117,117,117,117,117,117,117,117,117,117,117,117,117,117,117,117,117,117,117,117,117,117,117,117,117,117,117,117,117,117,117,117,117,117,117,117,117,117,117,117,117,117,117,117,117,117,117,117,117,117,85,62,62,62,62,62,62,62,62,63,
76,62,62,62,62,62,62,62,62,63,89,89,89,89,89,89,89,89,89,89,89,89,89,89,89,89,89,89,89,89,89,89,89,89,89,89,89,89,89,89,89,89,89,89,89,89,89,89,89,89,89,89,89,89,89,89,89,89,89,89,76,62,62,62,62,62,62,62,62,63,
76,62,62,62,62,62,62,62,62,63,89,89,89,89,89,89,89,89,89,89,89,89,89,89,89,89,89,89,89,89,89,89,89,89,89,89,89,89,89,89,89,89,89,89,89,89,89,89,89,89,89,89,89,89,89,89,89,89,89,89,76,62,62,62,62,62,62,62,62,63,
76,62,62,62,62,62,62,62,62,63,89,89,89,89,89,89,89,89,89,89,89,89,89,89,89,89,89,89,89,89,89,89,89,89,89,89,89,89,89,89,89,89,89,89,89,89,89,89,89,89,89,89,89,89,89,89,89,89,89,89,76,62,62,62,62,62,62,62,62,63,
76,62,62,62,62,62,62,62,62,63,89,89,89,89,89,89,89,89,89,89,89,89,89,89,89,89,89,89,89,89,89,89,89,89,89,89,89,89,89,89,89,89,89,89,89,89,89,89,89,89,89,89,89,89,89,89,89,89,89,89,76,62,62,62,62,62,62,62,62,63,
76,62,62,62,62,62,62,62,62,63,89,89,89,89,89,89,89,89,89,89,89,89,89,89,89,89,89,89,89,89,89,89,89,89,89,89,89,89,89,89,89,89,89,89,89,89,89,89,89,89,89,89,89,89,89,89,89,89,89,89,76,62,62,62,62,62,62,62,62,63,
76,62,62,62,62,62,62,62,62,63,89,89,89,89,89,89,89,89,89,89,89,89,89,89,89,89,89,89,89,89,89,89,89,89,89,89,89,89,89,89,89,89,89,89,89,89,89,89,89,89,89,89,89,89,89,89,89,89,89,89,76,62,62,62,62,62,62,62,62,63,
76,62,62,62,62,62,62,62,62,63,89,89,89,89,89,89,89,89,89,89,89,89,89,89,89,89,89,89,89,89,89,89,89,89,89,89,89,89,89,89,89,89,89,89,89,89,89,89,89,89,89,89,89,89,89,89,89,89,89,89,76,62,62,62,62,62,62,62,62,63,
76,62,62,62,62,62,62,62,62,77,102,102,102,102,102,102,102,102,102,102,102,102,102,102,102,102,102,102,102,102,102,102,100,89,89,89,89,101,102,102,102,102,102,102,102,102,102,102,102,102,102,102,102,102,102,102,102,102,102,102,61,62,62,62,62,62,62,62,62,63,
76,62,62,62,62,62,62,62,62,62,62,62,86,62,86,62,86,62,62,86,62,86,62,86,86,86,62,62,62,86,86,86,63,89,89,89,89,76,86,62,86,86,62,62,86,86,86,62,86,86,86,62,62,86,62,86,86,86,86,86,86,62,62,62,62,62,62,62,62,63,
76,62,62,62,62,62,62,62,86,86,62,86,62,62,62,86,62,62,62,86,62,62,86,62,62,62,62,86,62,86,62,62,63,89,89,89,89,76,86,86,86,86,62,86,62,62,86,86,62,86,62,86,62,86,86,86,86,86,62,86,86,62,62,62,62,62,62,62,62,63,
76,62,62,62,62,62,62,62,86,62,86,86,62,86,62,62,62,86,62,86,62,86,86,62,62,86,86,86,86,62,62,86,63,89,89,89,89,76,86,62,62,86,62,86,86,62,62,86,86,62,86,62,86,62,86,86,62,62,62,62,86,62,62,62,62,62,62,62,62,63,
76,62,62,62,62,62,62,62,86,62,62,62,62,86,86,62,62,62,86,62,62,62,62,62,62,62,62,62,62,62,62,62,63,89,89,89,89,76,86,86,62,86,86,62,62,62,86,86,62,86,86,62,86,86,62,86,62,62,86,86,86,62,62,62,62,62,62,62,62,63,
76,62,62,62,62,62,62,62,62,86,86,62,86,62,86,86,62,62,62,62,86,86,62,86,86,62,62,62,62,86,62,69,115,89,89,89,89,116,85,62,62,86,86,86,62,86,62,86,86,86,86,62,86,62,62,62,86,86,86,86,62,62,62,62,62,62,62,62,62,63,
76,62,62,62,62,62,62,62,62,62,86,62,86,86,62,86,62,62,62,62,62,62,62,62,62,86,86,86,86,86,69,115,89,89,89,89,89,89,116,85,86,62,86,86,86,62,86,86,62,86,62,86,62,86,86,62,86,62,86,62,86,62,62,62,62,62,62,62,62,63,
76,62,62,62,62,62,62,62,62,62,62,86,62,62,62,62,62,86,86,62,62,62,62,62,62,62,62,86,86,69,115,89,89,89,89,89,89,89,89,116,85,86,86,86,62,62,62,86,86,86,86,62,62,62,62,86,86,62,62,86,86,62,62,62,62,62,62,62,62,63,
76,62,62,62,62,62,62,62,62,86,62,62,86,62,86,86,62,86,62,86,62,62,86,86,86,62,62,86,69,115,89,89,89,89,89,89,89,89,89,89,116,85,86,86,86,86,86,86,62,86,86,86,86,62,86,86,62,86,86,86,62,62,62,62,62,62,62,62,62,63,
76,62,62,62,62,62,62,62,62,86,86,86,62,86,62,62,86,62,86,62,62,86,62,62,86,86,86,69,115,89,89,89,89,89,89,89,89,89,89,89,89,116,85,62,62,86,86,86,62,86,62,86,62,62,62,62,86,62,62,62,86,62,62,62,62,62,62,62,62,63,
76,62,62,62,62,62,62,62,62,86,86,86,62,86,62,62,62,62,86,62,86,86,62,62,62,62,69,115,89,89,89,89,89,89,89,89,89,89,89,89,89,89,116,85,86,86,62,62,86,86,86,86,86,86,86,86,86,62,62,62,86,62,62,62,62,62,62,62,62,63,
76,62,62,62,62,62,62,62,62,62,86,86,62,62,62,86,86,62,62,86,62,86,62,62,62,69,115,89,89,89,89,89,89,89,101,100,89,89,89,89,89,89,89,116,85,62,62,86,62,62,86,86,86,86,62,62,86,86,86,86,86,62,62,62,62,62,62,62,62,63,
76,62,62,62,62,62,62,62,62,62,86,86,86,86,62,86,62,86,86,86,86,62,62,86,69,115,89,89,89,89,89,89,89,101,61,77,100,89,89,89,89,89,89,89,116,85,62,62,86,86,86,86,86,62,86,62,86,86,62,62,86,62,62,62,62,62,62,62,62,63,
76,62,62,62,62,62,62,62,62,62,86,62,62,86,62,62,86,62,62,62,86,86,62,69,115,89,89,89,89,89,89,89,101,61,86,62,77,100,89,89,89,89,89,89,89,116,85,86,86,62,62,86,86,86,62,86,62,86,62,86,86,86,62,62,62,62,62,62,62,63,
76,62,62,62,62,62,62,62,62,86,86,62,62,86,86,86,86,62,62,62,86,62,69,115,89,89,89,89,89,89,89,101,61,62,62,86,62,77,100,89,89,89,89,89,89,89,116,85,86,62,62,86,62,86,86,86,62,62,86,62,62,86,62,62,62,62,62,62,62,63,
76,62,62,62,62,62,62,62,86,62,62,86,86,62,86,86,62,62,62,86,86,69,115,89,89,89,89,89,89,89,101,61,86,86,86,62,62,62,77,100,89,89,89,89,89,89,89,116,85,62,86,62,86,86,86,62,86,86,86,86,86,62,62,62,62,62,62,62,62,63,
76,62,62,62,62,62,62,62,86,62,62,86,86,62,62,86,86,62,86,62,69,115,89,89,89,89,89,89,89,101,61,62,86,86,62,86,62,62,86,77,100,89,89,89,89,89,89,89,116,85,62,86,86,62,86,86,62,86,86,62,86,62,62,62,62,62,62,62,62,63,
76,62,62,62,62,62,62,62,86,86,62,86,62,86,62,62,86,86,62,69,115,89,89,89,89,89,89,89,101,61,86,62,86,62,62,62,86,86,62,62,77,100,89,89,89,89,89,89,89,116,85,62,86,86,86,86,62,86,86,62,86,62,62,62,62,62,62,62,62,63,
76,62,62,62,62,62,62,62,62,69,117,117,117,117,117,117,117,117,117,115,89,89,89,89,89,89,89,101,61,86,86,62,62,62,62,86,86,86,62,62,62,77,100,89,89,89,89,89,89,89,116,117,117,117,117,117,117,117,117,117,85,62,62,62,62,62,62,62,62,63,
76,62,62,62,62,62,62,62,62,63,89,89,89,89,89,89,89,89,89,89,89,89,89,89,89,89,101,61,62,62,86,62,86,62,62,86,86,86,62,86,86,62,77,100,89,89,89,89,89,89,89,89,89,89,89,89,89,89,89,89,76,62,62,62,62,62,62,62,62,63,
76,62,62,62,62,62,62,62,62,63,89,89,89,89,89,89,89,89,89,89,89,89,89,89,89,101,61,62,62,86,62,86,62,62,86,62,62,62,62,86,86,62,86,77,100,89,89,89,89,89,89,89,89,89,89,89,89,89,89,89,76,62,62,62,62,62,62,62,62,63,
76,62,62,62,62,62,62,62,62,63,89,89,89,89,89,89,89,89,89,89,89,89,89,89,89,116,85,62,86,86,86,86,62,86,86,86,62,86,62,62,86,62,86,69,115,89,89,89,89,89,89,89,89,89,89,89,89,89,89,89,76,62,62,62,62,62,62,62,62,63,
76,62,62,62,62,62,62,62,62,63,89,89,89,89,89,89,89,89,89,89,89,89,89,89,89,89,116,85,86,62,86,62,86,86,86,62,86,62,62,86,62,62,69,115,89,89,89,89,89,89,89,89,89,89,89,89,89,89,89,89,76,62,62,62,62,62,62,62,62,63,
76,62,62,62,62,62,62,62,62,77,102,102,102,102,102,102,102,102,102,100,89,89,89,89,89,89,89,116,85,86,86,86,86,86,86,86,62,62,62,62,62,69,115,89,89,89,89,89,89,89,101,102,102,102,102,102,102,102,102,102,61,62,62,62,62,62,62,62,62,63,
76,62,62,62,62,62,62,62,62,62,86,86,62,86,62,62,62,62,62,77,100,89,89,89,89,89,89,89,116,85,62,62,86,86,62,62,86,86,62,62,69,115,89,89,89,89,89,89,89,101,61,62,62,62,86,86,86,86,86,62,86,62,62,62,62,62,62,62,62,63,
76,62,62,62,62,62,62,62,62,62,86,62,86,62,62,86,62,62,86,62,77,100,89,89,89,89,89,89,89,116,85,62,62,62,86,86,62,62,62,69,115,89,89,89,89,89,89,89,101,61,86,62,86,86,62,62,86,62,62,86,86,86,62,62,62,62,62,62,62,63,
76,62,62,62,62,62,62,62,62,62,86,62,62,86,62,86,86,62,86,62,86,77,100,89,89,89,89,89,89,89,116,85,62,62,86,86,62,86,69,115,89,89,89,89,89,89,89,101,61,86,62,86,62,86,62,62,62,86,62,86,62,86,62,62,62,62,62,62,62,63,
76,62,62,62,62,62,62,62,62,62,86,62,62,86,86,86,86,86,62,86,62,62,77,100,89,89,89,89,89,89,89,116,85,86,86,62,62,69,115,89,89,89,89,89,89,89,101,61,86,62,62,62,62,86,86,62,86,62,62,86,62,86,62,62,62,62,62,62,62,63,
76,62,62,62,62,62,62,62,62,62,86,62,86,62,62,86,62,62,86,86,62,62,62,77,100,89,89,89,89,89,89,89,116,85,86,62,69,115,89,89,89,89,89,89,89,101,61,86,86,62,86,62,62,86,62,86,86,86,86,86,62,62,62,62,62,62,62,62,62,63,
76,62,62,62,62,62,62,62,86,86,62,86,86,62,62,62,86,86,62,86,86,62,62,86,77,100,89,89,89,89,89,89,89,116,85,69,115,89,89,89,89,89,89,89,101,61,86,86,62,86,62,62,62,62,86,62,86,62,62,86,62,62,62,62,62,62,62,62,62,63,
76,62,62,62,62,62,62,62,86,86,86,62,86,86,62,86,86,86,86,62,62,62,62,86,86,77,100,89,89,89,89,89,89,89,116,115,89,89,89,89,89,89,89,101,61,86,62,62,62,86,86,86,86,86,86,62,62,86,86,62,62,62,62,62,62,62,62,62,62,63,
76,62,62,62,62,62,62,62,86,86,86,86,86,62,62,86,86,62,86,86,62,62,62,86,62,62,77,100,89,89,89,89,89,89,89,89,89,89,89,89,89,89,101,61,62,86,86,62,86,62,86,86,62,62,86,62,86,86,86,86,86,62,62,62,62,62,62,62,62,63,
76,62,62,62,62,62,62,62,86,62,86,86,62,62,62,86,86,62,86,86,62,86,86,86,86,86,86,77,100,89,89,89,89,89,89,89,89,89,89,89,89,101,61,86,86,62,86,62,86,86,62,86,62,62,62,62,86,62,86,62,86,62,62,62,62,62,62,62,62,63,
76,62,62,62,62,62,62,62,86,86,86,86,86,62,62,62,86,86,62,62,62,86,86,86,86,86,86,86,77,100,89,89,89,89,89,89,89,89,89,89,101,61,62,86,86,62,62,62,86,62,62,62,62,86,62,86,86,62,62,86,62,86,62,62,62,62,62,62,62,63,
76,62,62,62,62,62,62,62,86,62,86,62,86,62,62,62,86,86,86,62,62,86,86,86,62,86,62,62,62,77,100,89,89,89,89,89,89,89,89,101,61,86,62,62,62,62,62,62,86,62,62,62,62,62,62,86,86,62,62,62,86,86,62,62,62,62,62,62,62,63,
76,62,62,62,62,62,62,62,62,86,62,62,86,62,86,86,86,62,86,86,86,62,86,62,62,62,62,62,86,62,77,100,89,89,89,89,89,89,101,61,86,62,86,62,86,62,86,86,86,62,62,86,62,62,86,86,86,86,86,86,86,86,62,62,62,62,62,62,62,63,
76,62,62,62,62,62,62,62,62,86,62,86,62,62,62,62,62,86,86,62,62,62,86,62,62,86,86,86,62,62,62,77,100,89,89,89,89,101,61,62,86,62,62,86,62,62,86,86,86,62,62,62,86,86,86,62,86,86,62,62,86,62,62,62,62,62,62,62,62,63,
76,62,62,62,62,62,62,62,86,86,62,62,86,62,86,62,62,62,86,86,62,86,86,86,62,86,62,86,86,62,86,86,63,89,89,89,89,76,86,62,62,62,62,86,86,86,62,62,86,62,86,62,86,62,86,86,86,62,62,86,86,86,62,62,62,62,62,62,62,63,
76,62,62,62,62,62,62,62,62,86,62,86,86,86,86,62,86,86,62,62,62,62,86,62,62,86,86,62,86,86,86,86,63,89,89,89,89,76,86,86,86,86,86,86,86,62,62,62,62,86,62,86,62,86,62,62,86,86,62,62,86,86,62,62,62,62,62,62,62,63,
76,62,62,62,62,62,62,62,62,62,86,86,62,62,62,62,62,86,62,62,86,62,62,62,62,86,86,86,62,86,62,86,63,89,89,89,89,76,62,86,62,62,86,62,86,62,86,86,86,86,62,62,86,86,62,62,86,62,86,62,86,62,62,62,62,62,62,62,62,63,
76,62,62,62,62,62,62,62,62,62,62,86,62,62,62,62,86,62,86,62,86,86,62,62,86,62,86,62,62,62,86,86,63,89,89,89,89,76,86,62,86,62,86,62,62,62,62,62,62,62,86,62,62,86,86,86,62,62,86,62,86,62,62,62,62,62,62,62,62,63,
76,62,62,62,62,62,62,62,62,62,86,86,86,62,62,62,62,86,62,86,62,62,62,86,86,62,86,86,62,86,62,86,63,89,89,89,89,76,86,86,62,86,86,86,62,62,62,62,62,62,86,86,62,86,62,86,86,62,62,86,62,62,62,62,62,62,62,62,62,63,
76,62,62,62,62,62,62,62,62,62,62,86,86,86,62,62,86,62,86,86,62,62,62,86,86,86,86,86,62,86,86,62,63,89,89,89,89,76,86,62,62,62,86,86,86,86,62,62,62,62,62,86,62,62,86,62,86,62,62,62,62,86,62,62,62,62,62,62,62,63,
76,62,62,62,62,62,62,62,62,62,62,62,62,86,62,86,62,86,86,86,62,62,86,86,86,62,86,86,62,62,62,62,77,102,102,102,102,61,62,62,62,62,86,62,62,86,62,86,62,86,62,62,62,86,62,62,62,62,86,86,86,86,62,62,62,62,62,62,62,63,
76,62,62,62,62,62,62,62,62,62,62,86,62,62,62,62,62,86,86,62,86,62,62,86,86,86,62,62,86,86,62,62,62,62,62,62,62,62,86,86,62,62,86,86,62,86,62,62,62,62,62,62,62,62,62,86,86,86,86,62,62,62,62,62,62,62,62,62,62,63,
76,62,62,62,62,62,62,62,62,62,62,62,62,62,62,62,62,62,62,62,62,62,62,62,62,62,62,62,62,62,62,62,62,62,62,62,62,62,62,62,62,62,62,62,62,62,62,62,62,62,62,62,62,62,62,62,62,62,62,62,62,62,62,62,62,62,62,62,62,63,
76,62,62,62,62,62,62,62,62,62,62,62,62,62,62,62,62,62,62,62,62,62,62,62,62,62,62,62,62,62,62,62,62,62,62,62,62,62,62,62,62,62,62,62,62,62,62,62,62,62,62,62,62,62,62,62,62,62,62,62,62,62,62,62,62,62,62,62,62,63,
76,62,62,62,62,62,62,62,62,62,62,62,62,62,62,62,62,62,62,62,62,62,62,62,62,62,62,62,62,62,62,62,62,62,62,62,62,62,62,62,62,62,62,62,62,62,62,62,62,62,62,62,62,62,62,62,62,62,62,62,62,62,62,62,62,62,62,62,62,63,
76,62,62,62,62,62,62,62,62,62,62,62,62,62,62,62,62,62,62,62,62,62,62,62,62,62,62,62,62,62,62,62,62,62,62,62,62,62,62,62,62,62,62,62,62,62,62,62,62,62,62,62,62,62,62,62,62,62,62,62,62,62,62,62,62,62,62,62,62,63,
76,62,62,62,62,62,62,62,62,62,62,62,62,62,62,62,62,62,62,62,62,62,62,62,62,62,62,62,62,62,62,62,62,62,62,62,62,62,62,62,62,62,62,62,62,62,62,62,62,62,62,62,62,62,62,62,62,62,62,62,62,62,62,62,62,62,62,62,86,63,
116,117,117,117,117,117,117,117,117,117,117,117,117,117,117,117,117,117,117,117,117,117,117,117,117,117,117,117,117,117,117,117,117,117,117,117,117,117,117,117,117,117,117,117,117,117,117,117,117,117,117,117,117,117,117,117,117,117,117,117,117,117,117,117,117,117,117,117,117,115
</data>
 </layer>
</map>
