<?xml version="1.0" encoding="UTF-8"?>
<map version="1.10" tiledversion="1.11.2" orientation="orthogonal" renderorder="right-down" width="90" height="96" tilewidth="32" tileheight="32" infinite="0" nextlayerid="2" nextobjectid="1">
 <tileset firstgid="1" source="../Tilesets/TSXs/Overworld 1.tsx"/>
 <tileset firstgid="124" source="../Tilesets/TSXs/Overworld 2.tsx"/>
 <layer id="1" name="Tile Layer 1" width="90" height="96">
  <data encoding="csv">
224,225,225,225,225,225,225,225,225,225,225,225,225,225,225,225,225,225,225,225,225,225,225,225,225,225,225,225,225,225,225,225,225,225,225,225,225,225,225,225,225,225,225,225,225,225,225,225,225,225,225,225,225,225,225,225,225,225,225,225,225,225,225,225,225,225,225,225,225,225,225,225,225,225,225,225,225,225,225,225,225,225,225,225,225,225,225,225,225,223,
199,209,185,185,185,185,185,185,185,185,185,185,185,185,185,185,185,185,185,185,185,185,185,185,185,185,185,185,185,185,185,185,185,185,185,185,185,185,185,185,185,185,185,185,185,185,185,185,185,185,185,185,185,185,185,185,185,185,185,185,185,185,185,185,185,185,185,185,185,185,185,185,185,185,185,185,185,185,185,185,185,185,185,185,185,185,185,185,185,186,
199,185,185,185,185,185,185,185,185,185,185,185,185,185,185,185,185,185,185,185,185,185,185,185,185,185,185,185,185,185,185,185,185,185,185,185,185,185,185,185,185,185,185,185,185,185,185,185,185,185,185,185,185,185,185,185,185,185,185,185,185,185,185,185,185,185,185,185,185,185,185,185,185,185,185,185,185,185,185,185,185,185,185,185,185,185,185,185,185,186,
199,185,185,185,185,185,185,185,185,185,185,185,185,185,185,185,185,185,185,185,185,185,185,185,185,185,185,185,185,185,185,185,185,185,185,185,185,185,185,185,185,185,185,185,185,185,185,185,185,185,185,185,185,185,185,185,185,185,185,185,185,185,185,185,185,185,185,185,185,185,185,185,185,185,185,185,185,185,185,185,185,185,185,185,185,185,185,185,185,186,
199,185,185,185,185,185,185,185,185,185,185,185,185,185,185,185,185,185,185,185,185,185,185,185,185,185,185,185,185,185,185,185,185,185,185,185,185,185,185,185,185,185,185,185,185,185,185,185,185,185,185,185,185,185,185,185,185,185,185,185,185,185,185,185,185,185,185,185,185,185,185,185,185,185,185,185,185,185,185,185,185,185,185,185,185,185,185,185,185,186,
199,185,185,185,185,185,185,185,185,185,185,185,185,185,185,185,185,185,185,185,185,185,185,185,185,185,185,185,185,185,185,185,185,185,185,185,185,185,185,185,185,185,185,185,185,185,185,185,185,185,185,185,185,185,185,185,185,185,185,185,185,185,185,185,185,185,185,185,185,185,185,185,185,185,185,185,185,185,185,185,185,185,185,185,185,185,185,185,185,186,
199,185,185,185,185,185,185,185,185,209,185,185,185,185,185,185,185,185,185,185,185,185,185,185,185,185,185,185,185,185,185,185,185,185,185,185,185,185,185,185,185,185,185,185,185,185,185,185,185,185,185,185,185,185,185,185,185,185,185,185,185,185,185,185,185,185,185,185,185,185,185,185,185,185,185,185,185,185,185,185,185,185,185,185,185,185,185,185,185,186,
199,185,185,185,185,185,185,185,209,192,240,240,240,240,240,240,240,240,240,240,240,240,240,240,240,240,240,240,240,240,240,240,240,240,240,240,240,240,240,240,240,240,240,240,240,240,240,240,240,240,240,240,240,240,240,240,240,240,240,240,240,240,240,240,240,240,240,240,240,240,240,240,240,240,240,240,240,240,240,240,208,209,185,185,185,185,185,185,185,186,
199,185,185,185,185,185,185,185,185,186,212,212,212,212,212,212,212,212,212,212,212,212,212,212,212,212,212,212,212,212,212,212,212,212,212,212,212,212,212,212,212,212,212,212,212,212,212,212,212,212,212,212,212,212,212,212,212,212,212,212,212,212,212,212,212,212,212,212,212,212,212,212,212,212,212,212,212,212,212,212,199,185,185,185,185,185,185,185,185,186,
199,185,185,185,185,185,185,185,185,186,212,212,212,212,212,212,212,212,212,212,212,212,212,212,212,212,212,212,212,212,212,212,212,212,212,212,212,212,212,212,212,212,212,212,212,212,212,212,212,212,212,212,212,212,212,212,212,212,212,212,212,212,212,212,212,212,212,212,212,212,212,212,212,212,212,212,212,212,212,212,199,185,185,185,185,185,185,185,185,186,
199,185,185,185,185,185,185,185,185,186,212,212,212,212,212,212,212,212,212,212,212,212,212,212,212,212,212,212,212,212,212,212,212,212,212,212,212,212,212,212,212,212,212,212,212,212,212,212,212,212,212,212,212,212,212,212,212,212,212,212,212,212,212,212,212,212,212,212,212,212,212,212,212,212,212,212,212,212,212,212,199,185,185,185,185,185,185,185,185,186,
199,185,185,185,185,185,185,185,185,186,212,212,212,212,212,212,212,212,212,212,212,212,212,212,212,212,212,212,212,212,212,212,212,212,212,212,212,212,212,212,212,212,212,212,212,212,212,212,212,212,212,212,212,212,212,212,212,212,212,212,212,212,212,212,212,212,212,212,212,212,212,212,212,212,212,212,212,212,212,212,199,185,185,185,185,185,185,185,185,186,
199,185,185,185,185,185,185,185,185,186,212,212,212,212,212,212,212,212,212,212,212,212,212,212,212,212,212,212,212,212,212,212,212,212,212,212,212,212,212,212,212,212,212,212,212,212,212,212,212,212,212,212,212,212,212,212,212,212,212,212,212,212,212,212,212,212,212,212,212,212,212,212,212,212,212,212,212,212,212,212,199,185,185,185,185,185,185,185,185,186,
199,185,185,185,185,185,185,185,185,186,212,212,212,212,212,212,212,212,212,212,212,212,212,212,212,212,212,212,212,212,212,212,212,212,212,212,212,212,212,212,212,212,212,212,212,212,212,212,212,212,212,212,212,212,212,212,212,212,212,212,212,212,212,212,212,212,212,212,212,212,212,212,212,212,212,212,212,212,212,212,199,185,185,185,185,185,185,185,185,186,
199,185,185,185,185,185,185,185,185,186,212,212,212,212,212,212,212,212,212,212,212,212,212,212,212,212,212,212,212,212,212,212,212,212,212,212,212,212,212,212,212,212,212,212,212,212,212,212,212,212,212,212,212,212,212,212,212,212,212,212,212,212,212,212,212,212,212,212,212,212,212,212,212,212,212,212,212,212,212,212,199,185,185,185,185,185,185,185,185,186,
199,185,185,185,185,185,185,185,185,186,212,212,212,212,212,212,212,212,212,212,212,212,212,212,212,212,212,212,212,212,212,212,212,212,212,212,212,212,212,212,212,212,212,212,212,212,212,212,212,212,212,212,212,212,212,212,212,212,212,212,212,212,212,212,212,212,212,212,212,212,212,212,212,212,212,212,212,212,212,212,199,185,185,185,185,185,185,185,185,186,
199,185,185,185,185,185,185,185,185,200,225,225,225,225,225,225,225,225,225,225,225,225,225,225,225,225,225,225,225,225,225,225,225,225,225,225,225,225,225,225,225,225,225,225,225,225,225,225,225,225,225,225,225,225,225,225,225,225,225,225,225,225,225,225,225,225,225,225,225,225,225,223,212,212,212,212,212,212,212,212,199,185,185,185,185,185,185,185,185,186,
199,185,185,185,185,185,185,185,185,192,240,240,240,240,240,240,240,240,240,240,240,240,240,240,240,240,240,240,240,240,208,192,240,240,240,240,240,240,240,240,240,240,240,240,240,240,240,240,240,240,208,192,240,240,240,240,240,240,240,240,240,240,240,240,240,240,240,240,240,240,208,186,212,212,212,212,212,212,212,212,199,185,185,185,185,185,185,185,185,186,
199,185,185,185,185,185,185,185,185,186,212,212,212,212,212,212,212,212,212,212,212,212,212,212,212,212,212,212,212,212,199,186,212,212,212,212,212,212,212,212,212,212,212,212,212,212,212,212,212,212,199,186,212,212,212,212,212,212,212,212,212,212,212,212,212,212,212,212,212,212,199,186,212,212,212,212,212,212,212,212,199,185,185,185,185,185,185,185,185,186,
199,185,185,185,185,185,185,185,185,186,212,212,212,212,212,212,212,212,212,212,212,212,212,212,212,212,212,212,212,212,239,238,212,212,212,212,212,212,212,212,224,223,212,212,212,212,212,212,212,212,199,186,212,212,212,212,212,212,212,212,212,212,212,212,212,212,212,212,212,212,199,186,212,212,212,212,212,212,212,212,199,185,185,185,185,185,185,185,185,186,
199,185,185,185,185,185,185,185,185,186,212,212,212,212,212,212,212,212,212,212,212,212,212,212,212,212,212,212,212,212,212,212,212,212,212,212,212,212,212,212,199,186,212,212,212,212,212,212,212,212,199,186,212,212,212,212,212,212,212,212,212,212,212,212,212,212,212,212,212,212,199,186,212,212,212,212,212,212,212,212,199,185,185,185,185,185,185,185,185,186,
199,185,185,185,185,185,185,185,185,186,212,212,212,212,212,212,212,212,212,212,212,212,212,212,212,212,212,212,212,212,212,212,212,212,212,212,212,212,212,212,199,186,212,212,212,212,212,212,212,212,199,186,212,212,212,212,212,212,212,212,212,212,212,212,212,212,212,212,212,212,199,186,212,212,212,212,212,212,212,212,199,185,185,185,185,185,185,185,185,186,
199,185,185,185,185,185,185,185,185,186,212,212,212,212,212,212,212,212,212,212,212,212,212,212,212,212,212,212,212,212,212,212,212,212,212,212,212,212,212,212,199,186,212,212,212,212,212,212,212,212,199,186,212,212,212,212,212,212,212,212,212,212,212,212,212,212,212,212,212,212,199,186,212,212,212,212,212,212,212,212,199,185,185,185,185,185,185,185,185,186,
199,185,185,185,185,185,185,185,185,186,212,212,212,212,212,212,212,212,212,212,212,212,212,212,212,212,212,212,212,212,224,223,212,212,212,212,212,212,212,212,199,186,212,212,212,212,212,212,212,212,199,186,212,212,212,212,212,212,212,212,212,212,212,212,212,212,212,212,212,212,199,186,212,212,212,212,212,212,212,212,199,185,185,185,185,185,185,185,185,186,
199,185,185,185,185,185,185,185,185,186,212,212,212,212,212,212,212,212,212,212,212,212,212,212,212,212,212,212,212,212,199,186,212,212,212,212,212,212,212,212,199,186,212,212,212,212,212,212,212,212,239,238,212,212,212,212,212,212,212,212,212,212,212,212,212,212,212,212,212,212,199,186,212,212,212,212,212,212,212,212,199,185,185,185,185,185,185,185,185,186,
199,185,185,185,185,185,185,185,185,186,212,212,212,212,212,212,212,212,212,212,212,212,212,212,212,212,212,212,212,212,199,186,212,212,212,212,212,212,212,212,199,186,212,212,212,212,212,212,212,212,212,212,212,212,212,212,212,212,212,212,212,212,212,212,212,212,212,212,212,212,199,186,212,212,212,212,212,212,212,212,199,185,185,185,185,185,185,185,185,186,
199,185,185,185,185,185,185,185,185,186,212,212,212,212,212,212,212,212,224,225,225,225,225,225,225,225,225,225,225,225,184,200,225,225,225,225,225,225,225,225,184,200,225,225,225,225,225,225,225,225,225,225,225,225,225,225,225,225,225,225,225,223,212,212,212,212,212,212,212,212,199,186,212,212,212,212,212,212,212,212,199,185,185,185,185,185,185,185,185,186,
199,185,185,185,185,185,185,185,185,186,212,212,212,212,212,212,212,212,199,192,240,240,240,240,240,240,240,240,240,240,240,240,240,240,240,240,240,240,240,240,240,240,240,240,240,240,240,240,240,240,240,240,240,240,240,240,240,240,240,240,208,186,212,212,212,212,212,212,212,212,199,186,212,212,212,212,212,212,212,212,199,185,185,185,185,185,185,185,185,186,
199,185,185,185,185,185,185,185,185,186,212,212,212,212,212,212,212,212,199,186,212,212,212,212,212,212,212,212,212,212,212,212,212,212,212,212,212,212,212,212,212,212,212,212,212,212,212,212,212,212,212,212,212,212,212,212,212,212,212,212,199,186,212,212,212,212,212,212,212,212,199,186,212,212,212,212,212,212,212,212,199,185,185,185,185,185,185,185,185,186,
199,185,185,185,185,185,185,185,185,186,212,212,212,212,212,212,212,212,199,186,212,212,212,212,212,212,212,212,212,212,212,212,212,212,212,212,212,212,212,212,212,212,212,212,212,212,212,212,212,212,212,212,212,212,212,212,212,212,212,212,199,186,212,212,212,212,212,212,212,212,199,186,212,212,212,212,212,212,212,212,199,185,185,185,185,185,185,185,185,186,
199,185,185,185,185,185,185,185,185,186,212,212,212,212,212,212,212,212,199,186,212,212,212,212,212,212,212,212,212,212,212,212,212,212,212,212,212,212,212,212,212,212,212,212,212,212,212,212,212,212,212,212,212,212,212,212,212,212,212,212,199,186,212,212,212,212,212,212,212,212,199,186,212,212,212,212,212,212,212,212,199,185,185,185,185,185,185,185,185,186,
199,185,185,185,185,185,185,185,185,186,212,212,212,212,212,212,212,212,199,186,212,212,212,212,212,212,212,212,212,212,212,212,212,212,212,212,212,212,212,212,212,212,212,212,212,212,212,212,212,212,212,212,212,212,212,212,212,212,212,212,199,186,212,212,212,212,212,212,212,212,199,186,212,212,212,212,212,212,212,212,199,185,185,185,185,185,185,185,185,186,
199,185,185,185,185,185,185,185,185,186,212,212,212,212,212,212,212,212,199,186,212,212,212,212,212,212,212,212,212,212,212,212,212,212,212,212,212,212,212,212,212,212,212,212,212,212,212,212,212,212,212,212,212,212,212,212,212,212,212,212,199,186,212,212,212,212,212,212,212,212,199,186,212,212,212,212,212,212,212,212,199,185,185,185,185,185,185,185,185,186,
199,185,185,185,185,185,185,185,185,186,212,212,212,212,212,212,212,212,199,186,212,212,212,212,212,212,212,212,212,212,212,212,212,212,212,212,212,212,212,212,212,212,212,212,212,212,212,212,212,212,212,212,212,212,212,212,212,212,212,212,199,186,212,212,212,212,212,212,212,212,199,186,212,212,212,212,212,212,212,212,199,185,185,185,185,185,185,185,185,186,
199,185,185,185,185,185,185,185,185,186,212,212,212,212,212,212,212,212,199,186,212,212,212,212,212,212,212,212,212,212,212,212,212,212,212,212,212,212,212,212,212,212,212,212,212,212,212,212,212,212,212,212,212,212,212,212,212,212,212,212,199,186,212,212,212,212,212,212,212,212,199,186,212,212,212,212,212,212,212,212,199,185,185,185,185,185,185,185,185,186,
199,185,185,185,185,185,185,185,185,186,212,212,212,212,212,212,212,212,199,186,212,212,212,212,212,212,212,212,212,212,212,212,212,212,212,212,212,212,212,212,212,212,212,212,212,212,212,212,212,212,212,212,212,212,212,212,212,212,212,212,199,186,212,212,212,212,212,212,212,212,199,186,212,212,212,212,212,212,212,212,199,185,185,185,185,185,185,185,185,186,
199,185,185,185,185,185,185,185,185,186,212,212,212,212,212,212,212,212,199,186,212,212,212,212,212,212,212,212,224,225,225,225,225,225,225,225,225,225,225,225,225,225,225,225,225,225,225,225,225,225,225,223,212,212,212,212,212,212,212,212,199,186,212,212,212,212,212,212,212,212,199,186,212,212,212,212,212,212,212,212,199,185,185,185,185,185,185,185,185,186,
199,185,185,185,185,185,185,185,185,186,212,212,212,212,212,212,212,212,199,186,212,212,212,212,212,212,212,212,199,185,185,185,185,185,185,185,209,209,185,185,209,185,209,209,185,185,185,185,209,209,209,186,212,212,212,212,212,212,212,212,199,186,212,212,212,212,212,212,212,212,199,186,212,212,212,212,212,212,212,212,199,185,185,185,185,185,185,185,185,186,
199,185,185,185,185,185,185,185,185,186,212,212,212,212,212,212,212,212,199,186,212,212,212,212,212,212,212,212,199,209,209,185,209,209,185,185,185,185,209,209,209,209,185,185,185,185,209,209,185,209,209,186,212,212,212,212,212,212,212,212,199,186,212,212,212,212,212,212,212,212,199,186,212,212,212,212,212,212,212,212,199,185,185,185,185,185,185,185,185,186,
199,185,185,185,185,185,185,185,185,186,212,212,212,212,212,212,212,212,199,186,212,212,212,212,212,212,212,212,199,209,185,209,209,185,185,185,185,209,209,209,185,185,209,209,185,209,209,185,185,185,185,186,212,212,212,212,212,212,212,212,199,186,212,212,212,212,212,212,212,212,199,186,212,212,212,212,212,212,212,212,199,185,185,185,185,185,185,185,185,186,
199,185,185,185,185,185,185,185,185,186,212,212,212,212,212,212,212,212,199,200,223,212,212,212,212,212,212,212,199,209,209,185,185,209,185,209,209,209,209,185,185,209,209,185,185,185,185,185,185,209,209,186,212,212,212,212,212,212,212,212,199,186,212,212,212,212,212,212,212,212,199,186,212,212,212,212,212,212,212,212,199,185,185,185,185,185,185,185,185,186,
199,185,185,185,185,185,185,185,185,186,212,212,212,212,212,212,212,212,199,185,200,223,212,212,212,212,212,212,199,209,185,209,185,185,209,209,209,209,185,209,209,209,185,185,209,185,209,185,209,185,185,186,212,212,212,212,212,212,212,212,199,186,212,212,212,212,212,212,212,212,199,186,212,212,212,212,212,212,212,212,199,185,185,185,185,185,185,185,185,186,
199,185,185,185,185,185,185,185,185,186,212,212,212,212,212,212,212,212,199,209,185,200,223,212,212,212,212,212,199,209,185,185,185,185,209,209,185,185,209,209,209,185,209,185,209,185,209,209,185,209,185,186,212,212,212,212,212,212,212,212,199,186,212,212,212,212,212,212,212,212,199,186,212,212,212,212,212,212,212,212,199,185,185,185,185,185,185,185,185,186,
199,185,185,185,185,185,185,185,185,186,212,212,212,212,212,212,212,212,199,185,209,209,200,223,212,212,212,212,199,185,209,185,185,209,209,185,209,185,185,209,209,209,209,185,209,185,185,209,209,185,209,186,212,212,212,212,212,212,212,212,199,186,212,212,212,212,212,212,212,212,199,186,212,212,212,212,212,212,212,212,199,185,185,185,185,185,185,185,185,186,
199,185,185,185,185,185,185,185,185,186,212,212,212,212,212,212,212,212,199,185,209,185,209,200,223,212,212,212,199,209,209,185,209,185,185,209,209,209,185,185,185,209,185,185,185,209,209,209,185,185,185,186,212,212,212,212,212,212,212,212,199,186,212,212,212,212,212,212,212,212,199,186,212,212,212,212,212,212,212,212,199,185,185,185,185,185,185,185,185,186,
199,185,185,185,185,185,185,185,185,186,212,212,212,212,212,212,212,212,199,192,240,240,240,240,238,212,212,212,199,209,185,209,209,209,209,185,185,209,185,209,209,185,209,185,209,185,185,209,185,209,185,186,212,212,212,212,212,212,212,212,199,186,212,212,212,212,212,212,212,212,199,186,212,212,212,212,212,212,212,212,199,185,185,185,185,185,185,185,185,186,
199,185,185,185,185,185,185,185,185,186,212,212,212,212,212,212,212,212,199,186,212,212,212,212,212,212,212,212,199,209,185,185,185,185,209,185,185,185,185,185,185,209,185,185,185,209,209,209,209,209,185,186,212,212,212,212,212,212,212,212,199,186,212,212,212,212,212,212,212,212,199,186,212,212,212,212,212,212,212,212,199,185,185,185,185,185,185,185,185,186,
199,185,185,185,185,185,185,185,185,186,212,212,212,212,212,212,212,212,199,186,212,212,212,212,212,212,212,212,199,209,209,209,209,209,209,185,185,185,185,185,209,209,209,209,185,185,209,185,209,185,185,186,212,212,212,212,212,212,212,212,199,186,212,212,212,212,212,212,212,212,199,186,212,212,212,212,212,212,212,212,199,185,185,185,185,185,185,185,185,186,
199,185,185,185,185,185,185,185,185,186,212,212,212,212,212,212,212,212,199,186,212,212,212,212,212,212,212,212,199,185,185,209,185,209,209,209,209,209,209,209,209,185,185,185,209,209,209,185,185,209,209,186,212,212,212,212,212,212,212,212,199,186,212,212,212,212,212,212,212,212,199,186,212,212,212,212,212,212,212,212,199,185,185,185,185,185,185,185,185,186,
199,185,185,185,185,185,185,185,185,186,212,212,212,212,212,212,212,212,199,186,212,212,212,212,212,212,212,212,199,209,209,209,209,185,185,185,185,185,185,209,185,185,209,209,209,185,185,209,185,209,209,186,212,212,212,212,212,212,212,212,199,186,212,212,212,212,212,212,212,212,199,186,212,212,212,212,212,212,212,212,199,185,185,185,185,185,185,185,185,186,
199,185,185,185,185,185,185,185,185,186,212,212,212,212,212,212,212,212,199,186,212,212,212,224,225,225,225,225,184,209,209,209,185,185,209,185,209,209,209,209,209,209,185,209,209,209,209,209,185,209,185,186,212,212,212,212,212,212,212,212,199,186,212,212,212,212,212,212,212,212,199,186,212,212,212,212,212,212,212,212,199,185,185,185,185,185,185,185,185,186,
199,185,185,185,185,185,185,185,185,186,212,212,212,212,212,212,212,212,199,186,212,212,212,239,208,209,185,185,209,209,209,209,185,209,209,185,185,185,209,209,185,185,209,185,185,185,209,209,185,209,185,186,212,212,212,212,212,212,212,212,199,186,212,212,212,212,212,212,212,212,199,186,212,212,212,212,212,212,212,212,199,185,185,185,185,185,185,185,185,186,
199,185,185,185,185,185,185,185,185,186,212,212,212,212,212,212,212,212,199,186,212,212,212,212,239,208,185,209,209,185,209,209,185,209,185,185,185,209,209,209,185,185,209,185,185,185,209,185,185,209,209,186,212,212,212,212,212,212,212,212,199,186,212,212,212,212,212,212,212,212,199,186,212,212,212,212,212,212,212,212,199,185,185,185,185,185,185,185,185,186,
199,185,185,185,185,185,185,185,185,186,212,212,212,212,212,212,212,212,199,186,212,212,212,212,212,239,208,185,185,209,185,209,185,209,185,185,209,209,185,185,209,209,209,185,209,185,185,185,209,185,185,186,212,212,212,212,212,212,212,212,199,186,212,212,212,212,212,212,212,212,199,186,212,212,212,212,212,212,212,212,199,185,185,185,185,185,185,185,185,186,
199,185,185,185,185,185,185,185,185,186,212,212,212,212,212,212,212,212,199,186,212,212,212,212,212,212,239,208,209,209,185,209,185,209,185,209,209,209,209,185,185,209,209,185,185,185,185,185,185,185,185,186,212,212,212,212,212,212,212,212,199,186,212,212,212,212,212,212,212,212,199,186,212,212,212,212,212,212,212,212,199,185,185,185,185,185,185,185,185,186,
199,185,185,185,185,185,185,185,185,186,212,212,212,212,212,212,212,212,199,186,212,212,212,212,212,212,212,239,208,209,185,209,185,185,185,185,185,185,185,209,185,209,209,209,185,209,209,185,185,185,209,186,212,212,212,212,212,212,212,212,199,186,212,212,212,212,212,212,212,212,199,186,212,212,212,212,212,212,212,212,199,185,185,185,185,185,185,185,185,186,
199,185,185,185,185,185,185,185,185,186,212,212,212,212,212,212,212,212,199,186,212,212,212,212,212,212,212,212,199,185,209,185,185,185,209,209,209,209,185,185,185,209,209,209,185,185,185,185,209,185,209,186,212,212,212,212,212,212,212,212,199,186,212,212,212,212,212,212,212,212,199,186,212,212,212,212,212,212,212,212,199,185,185,185,185,185,185,185,185,186,
199,185,185,185,185,185,185,185,185,186,212,212,212,212,212,212,212,212,199,200,223,212,212,212,212,212,212,212,199,192,240,240,240,240,240,240,240,240,240,240,240,240,240,240,240,240,240,240,240,240,240,238,212,212,212,212,212,212,212,212,199,186,212,212,212,212,212,212,212,212,199,186,212,212,212,212,212,212,212,212,199,185,185,185,185,185,185,185,185,186,
199,185,185,185,185,185,185,185,185,186,212,212,212,212,212,212,212,212,199,185,200,223,212,212,212,212,212,212,199,186,212,212,212,212,212,212,212,212,212,212,212,212,212,212,212,212,212,212,212,212,212,212,212,212,212,212,212,212,212,212,199,186,212,212,212,212,212,212,212,212,199,186,212,212,212,212,212,212,212,212,199,185,185,185,185,185,185,185,185,186,
199,185,185,185,185,185,185,185,185,186,212,212,212,212,212,212,212,212,199,185,209,200,223,212,212,212,212,212,199,186,212,212,212,212,212,212,212,212,212,212,212,212,212,212,212,212,212,212,212,212,212,212,212,212,212,212,212,212,212,212,199,186,212,212,212,212,212,212,212,212,199,186,212,212,212,212,212,212,212,212,199,185,185,185,185,185,185,185,185,186,
199,185,185,185,185,185,185,185,185,186,212,212,212,212,212,212,212,212,199,209,209,209,200,223,212,212,212,212,199,186,212,212,212,212,212,212,212,212,212,212,212,212,212,212,212,212,212,212,212,212,212,212,212,212,212,212,212,212,212,212,199,186,212,212,212,212,212,212,212,212,199,186,212,212,212,212,212,212,212,212,199,185,185,185,185,185,185,185,185,186,
199,185,185,185,185,185,185,185,185,186,212,212,212,212,212,212,212,212,199,185,209,209,185,200,223,212,212,212,199,186,212,212,212,212,212,212,212,212,212,212,212,212,212,212,212,212,212,212,212,212,212,212,212,212,212,212,212,212,212,212,199,186,212,212,212,212,212,212,212,212,199,186,212,212,212,212,212,212,212,212,199,185,185,185,185,185,185,185,185,186,
199,185,185,185,185,185,185,185,185,186,212,212,212,212,212,212,212,212,199,192,240,240,240,240,238,212,212,212,199,186,212,212,212,212,212,212,212,212,212,212,212,212,212,212,212,212,212,212,212,212,212,212,212,212,212,212,212,212,212,212,199,186,212,212,212,212,212,212,212,212,199,186,212,212,212,212,212,212,212,212,199,185,185,185,185,185,185,185,185,186,
199,185,185,185,185,185,185,185,185,186,212,212,212,212,212,212,212,212,199,186,212,212,212,212,212,212,212,212,199,186,212,212,212,212,212,212,212,212,212,212,212,212,212,212,212,212,212,212,212,212,212,212,212,212,212,212,212,212,212,212,199,186,212,212,212,212,212,212,212,212,199,186,212,212,212,212,212,212,212,212,199,185,185,185,185,185,185,185,185,186,
199,185,185,185,185,185,185,185,185,186,212,212,212,212,212,212,212,212,199,186,212,212,212,212,212,212,212,212,199,186,212,212,212,212,212,212,212,212,212,212,212,212,212,212,212,212,212,212,212,212,212,212,212,212,212,212,212,212,212,212,199,186,212,212,212,212,212,212,212,212,199,186,212,212,212,212,212,212,212,212,199,185,185,185,185,185,185,185,185,186,
199,185,185,185,185,185,185,185,185,186,212,212,212,212,212,212,212,212,199,186,212,212,212,212,212,212,212,212,199,186,212,212,212,212,212,212,212,212,212,212,212,212,212,212,212,212,212,212,212,212,212,212,212,212,212,212,212,212,212,212,199,186,212,212,212,212,212,212,212,212,199,186,212,212,212,212,212,212,212,212,199,185,185,185,185,185,185,185,185,186,
199,185,185,185,185,185,185,185,185,186,212,212,212,212,212,212,212,212,199,186,212,212,212,212,212,212,212,212,199,200,225,225,225,225,225,225,225,225,225,225,225,225,225,225,225,225,225,225,225,225,225,225,225,225,225,225,225,225,225,225,184,186,212,212,212,212,212,212,212,212,199,186,212,212,212,212,212,212,212,212,199,185,185,185,185,185,185,185,185,186,
199,185,185,185,185,185,185,185,185,186,212,212,212,212,212,212,212,212,199,186,212,212,212,212,212,212,212,212,239,240,240,240,240,240,240,240,240,240,240,240,240,240,240,240,240,240,240,240,240,240,240,240,240,240,240,240,240,240,240,240,240,238,212,212,212,212,212,212,212,212,199,186,212,212,212,212,212,212,212,212,199,185,185,185,185,185,185,185,185,186,
199,185,185,185,185,185,185,185,185,186,212,212,212,212,212,212,212,212,199,186,212,212,212,212,212,212,212,212,212,212,212,212,212,212,212,212,212,212,212,212,212,212,212,212,212,212,212,212,212,212,212,212,212,212,212,212,212,212,212,212,212,212,212,212,212,212,212,212,212,212,199,186,212,212,212,212,212,212,212,212,199,185,185,185,185,185,185,185,185,186,
199,185,185,185,185,185,185,185,185,186,212,212,212,212,212,212,212,212,199,186,212,212,212,212,212,212,212,212,212,212,212,212,212,212,212,212,212,212,212,212,212,212,212,212,212,212,212,212,212,212,212,212,212,212,212,212,212,212,212,212,212,212,212,212,212,212,212,212,212,212,199,186,212,212,212,212,212,212,212,212,199,185,185,185,185,185,185,185,185,186,
199,185,185,185,185,185,185,185,185,186,212,212,212,212,212,212,212,212,199,186,212,212,212,212,212,212,212,212,212,212,212,212,212,212,212,212,212,212,212,212,212,212,212,212,212,212,212,212,212,212,212,212,212,212,212,212,212,212,212,212,212,212,212,212,212,212,212,212,212,212,199,186,212,212,212,212,212,212,212,212,199,185,185,185,185,185,185,185,185,186,
199,185,185,185,185,185,185,185,185,186,212,212,212,212,212,212,212,212,199,186,212,212,212,212,212,212,212,212,212,212,212,212,212,212,212,212,212,212,212,212,212,212,212,212,212,212,212,212,212,212,212,212,212,212,212,212,212,212,212,212,212,212,212,212,212,212,212,212,212,212,199,186,212,212,212,212,212,212,212,212,199,185,185,185,185,185,185,185,185,186,
199,185,185,185,185,185,185,185,185,186,212,212,212,212,212,212,212,212,199,186,212,212,212,212,212,212,212,212,212,212,212,212,212,212,212,212,212,212,212,212,212,212,212,212,212,212,212,212,212,212,212,212,212,212,212,212,212,212,212,212,212,212,212,212,212,212,212,212,212,212,199,186,212,212,212,212,212,212,212,212,199,185,185,185,185,185,185,185,185,186,
199,185,185,185,185,185,185,185,185,186,212,212,212,212,212,212,212,212,199,186,212,212,212,212,212,212,212,212,212,212,212,212,212,212,212,212,212,212,212,212,212,212,212,212,212,212,212,212,212,212,212,212,212,212,212,212,212,212,212,212,212,212,212,212,212,212,212,212,212,212,199,186,212,212,212,212,212,212,212,212,199,185,185,185,185,185,185,185,185,186,
199,185,185,185,185,185,185,185,185,186,212,212,212,212,212,212,212,212,199,186,212,212,212,212,212,212,212,212,212,212,212,212,212,212,212,212,212,212,212,212,212,212,212,212,212,212,212,212,212,212,212,212,212,212,212,212,212,212,212,212,212,212,212,212,212,212,212,212,212,212,199,186,212,212,212,212,212,212,212,212,199,185,185,185,185,185,185,185,185,186,
199,185,185,185,185,185,185,185,185,186,212,212,212,212,212,212,212,212,199,186,212,212,212,212,212,212,212,212,212,212,212,212,212,212,212,212,212,212,212,212,212,212,212,212,212,212,212,212,212,212,212,212,212,212,212,212,212,212,212,212,212,212,212,212,212,212,212,212,212,212,199,186,212,212,212,212,212,212,212,212,199,185,185,185,185,185,185,185,185,186,
199,185,185,185,185,185,185,185,185,186,212,212,212,212,212,212,212,212,199,200,225,225,225,225,225,225,225,225,225,225,225,225,225,225,225,225,225,225,225,225,225,225,225,225,225,225,225,225,225,225,225,225,225,225,225,225,225,225,225,225,225,225,225,225,225,225,225,225,225,225,184,186,212,212,212,212,212,212,212,212,199,185,185,185,185,185,185,185,185,186,
199,185,185,185,185,185,185,185,185,186,212,212,212,212,212,212,212,212,239,240,240,240,240,240,240,240,240,240,240,240,240,240,240,240,240,240,240,240,240,240,240,240,240,240,240,240,240,240,240,240,240,240,240,240,240,240,240,240,240,240,240,240,240,240,240,240,240,240,240,240,240,238,212,212,212,212,212,212,212,212,199,185,185,185,185,185,185,185,185,186,
199,185,185,185,185,185,185,185,185,186,212,212,212,212,212,212,212,212,212,212,212,212,212,212,212,212,212,212,212,212,212,212,212,212,212,212,212,212,212,212,212,212,212,212,212,212,212,212,212,212,212,212,212,212,212,212,212,212,212,212,212,212,212,212,212,212,212,212,212,212,212,212,212,212,212,212,212,212,212,212,199,185,185,185,185,185,185,185,185,186,
199,185,185,185,185,185,185,185,185,186,212,212,212,212,212,212,212,212,212,212,212,212,212,212,212,212,212,212,212,212,212,212,212,212,212,212,212,212,212,212,212,212,212,212,212,212,212,212,212,212,212,212,212,212,212,212,212,212,212,212,212,212,212,212,212,212,212,212,212,212,212,212,212,212,212,212,212,212,212,212,199,185,185,185,185,185,185,185,185,186,
199,185,185,185,185,185,185,185,185,186,212,212,212,212,212,212,212,212,212,212,212,212,212,212,212,212,212,212,212,212,212,212,212,212,212,212,212,212,212,212,212,212,212,212,212,212,212,212,212,212,212,212,212,212,212,212,212,212,212,212,212,212,212,212,212,212,212,212,212,212,212,212,212,212,212,212,212,212,212,212,199,185,185,185,185,185,185,185,185,186,
199,185,185,185,185,185,185,185,185,186,212,212,212,212,212,212,212,212,212,212,212,212,212,212,212,212,212,212,212,212,212,212,212,212,212,212,212,212,212,212,212,212,212,212,212,212,212,212,212,212,212,212,212,212,212,212,212,212,212,212,212,212,212,212,212,212,212,212,212,212,212,212,212,212,212,212,212,212,212,212,199,185,185,185,185,185,185,185,185,186,
199,185,185,185,185,185,185,185,185,186,212,212,212,212,212,212,212,212,212,212,212,212,212,212,212,212,212,212,212,212,212,212,212,212,212,212,212,212,212,212,212,212,212,212,212,212,212,212,212,212,212,212,212,212,212,212,212,212,212,212,212,212,212,212,212,212,212,212,212,212,212,212,212,212,212,212,212,212,212,212,199,185,185,185,185,185,185,185,185,186,
199,185,185,185,185,185,185,185,185,186,212,212,212,212,212,212,212,212,212,212,212,212,212,212,212,212,212,212,212,212,212,212,212,212,212,212,212,212,212,212,212,212,212,212,212,212,212,212,212,212,212,212,212,212,212,212,212,212,212,212,212,212,212,212,212,212,212,212,212,212,212,212,212,212,212,212,212,212,212,212,199,185,185,185,185,185,185,185,185,186,
199,185,185,185,185,185,185,185,185,186,212,212,212,212,212,212,212,212,212,212,212,212,212,212,212,212,212,212,212,212,212,212,212,212,212,212,212,212,212,212,212,212,212,212,212,212,212,212,212,212,212,212,212,212,212,212,212,212,212,212,212,212,212,212,212,212,212,212,212,212,212,212,212,212,212,212,212,212,212,212,199,185,185,185,185,185,185,185,185,186,
199,185,185,185,185,185,185,185,209,186,212,212,212,212,212,212,212,212,212,212,212,212,212,212,212,212,212,212,212,212,212,212,212,212,212,212,212,212,212,212,212,212,212,212,212,212,212,212,212,212,212,212,212,212,212,212,212,212,212,212,212,212,212,212,212,212,212,212,212,212,212,212,212,212,212,212,212,212,212,212,199,185,185,185,185,185,185,185,185,186,
199,185,185,185,185,185,185,185,209,200,225,225,225,225,225,225,225,225,225,225,225,225,225,225,225,225,225,225,225,225,225,225,225,225,225,225,225,225,225,225,225,225,225,225,225,225,225,225,225,225,225,225,225,225,225,225,225,225,225,225,225,225,225,225,225,225,225,225,225,225,225,225,225,225,225,225,225,225,225,225,184,185,185,185,185,185,185,185,185,186,
199,185,185,185,185,185,185,185,209,185,185,185,185,185,185,185,185,185,185,185,185,185,185,185,185,185,185,185,185,185,185,185,185,185,185,185,185,185,185,185,185,185,185,185,185,185,185,185,185,185,185,185,185,185,185,185,185,185,185,185,185,185,185,185,185,185,185,185,185,185,185,185,185,185,185,185,185,185,185,185,209,209,185,185,185,185,185,185,185,186,
199,185,185,185,185,185,185,185,185,185,185,185,185,185,185,185,185,185,185,185,185,185,185,185,185,185,185,185,185,185,185,185,185,185,185,185,185,185,185,185,185,185,185,185,185,185,185,185,185,185,185,185,185,185,185,185,185,185,185,185,185,185,185,185,185,185,185,185,185,185,185,185,185,185,185,185,185,185,185,185,185,185,185,185,185,185,185,185,185,186,
199,185,185,185,185,185,185,185,185,185,185,185,185,185,185,185,185,185,185,185,185,185,185,185,185,185,185,185,185,185,185,185,185,185,185,185,185,185,185,185,185,185,185,185,185,185,185,185,185,185,185,185,185,185,185,185,185,185,185,185,185,185,185,185,185,185,185,185,185,185,185,185,185,185,185,185,185,185,185,185,185,185,185,185,185,185,185,185,185,186,
199,185,185,185,185,185,185,185,185,185,185,185,185,185,185,185,185,185,185,185,185,185,185,185,185,185,185,185,185,185,185,185,185,185,185,185,185,185,185,185,185,185,185,185,185,185,185,185,185,185,185,185,185,185,185,185,185,185,185,185,185,185,185,185,185,185,185,185,185,185,185,185,185,185,185,185,185,185,185,185,185,185,185,185,185,185,185,185,185,186,
199,185,185,185,185,185,185,185,185,185,185,185,185,185,185,185,185,185,185,185,185,185,185,185,185,185,185,185,185,185,185,185,185,185,185,185,185,185,185,185,185,185,185,185,185,185,185,185,185,185,185,185,185,185,185,185,185,185,185,185,185,185,185,185,185,185,185,185,185,185,185,185,185,185,185,185,185,185,185,185,185,185,185,185,185,185,185,185,185,186,
199,185,185,185,185,185,185,185,185,185,185,185,185,185,185,185,185,185,185,185,185,185,185,185,185,185,185,185,185,185,185,185,185,185,185,185,185,185,185,185,185,185,185,185,185,185,185,185,185,185,185,185,185,185,185,185,185,185,185,185,185,185,185,185,185,185,185,185,185,185,185,185,185,185,185,185,185,185,185,185,185,185,185,185,185,185,185,185,185,186,
199,185,185,185,185,185,185,185,185,185,185,185,185,185,185,185,185,185,185,185,185,185,185,185,185,185,185,185,185,185,185,185,185,185,185,185,185,185,185,185,185,185,185,185,185,185,185,185,185,185,185,185,185,185,185,185,185,185,185,185,185,185,185,185,185,185,185,185,185,185,185,185,185,185,185,185,185,185,185,185,185,185,185,185,185,185,185,185,185,186,
199,209,209,185,185,185,185,185,185,185,185,185,185,185,185,185,185,185,185,185,185,185,185,185,185,185,185,185,185,185,185,185,185,185,185,185,185,185,185,185,185,185,185,185,185,185,185,185,185,185,185,185,185,185,185,185,185,185,185,185,185,185,185,185,185,185,185,185,185,185,185,185,185,185,185,185,185,185,185,185,185,185,185,185,185,185,185,185,209,186,
239,240,240,240,240,240,240,240,240,240,240,240,240,240,240,240,240,240,240,240,240,240,240,240,240,240,240,240,240,240,240,240,240,240,240,240,240,240,240,240,240,240,240,240,240,240,240,240,240,240,240,240,240,240,240,240,240,240,240,240,240,240,240,240,240,240,240,240,240,240,240,240,240,240,240,240,240,240,240,240,240,240,240,240,240,240,240,240,240,238
</data>
 </layer>
</map>
